src/icons/air-gap.svg

<svg viewBox="0 0 24 24" fill="none" xmlns="http://www.w3.org/2000/svg">
<path d="M15.083 23.1131C18.7501 21.534 21.6115 17.8826 21.9973 14.185C22.3775 10.5415 21.976 5.62533 21.9588 5.41778L21.9027 4.74596L21.2544 4.56127C21.2357 4.55601 19.3706 4.02239 18.0182 3.44537C16.3055 2.71473 14.5735 1.7114 14.5563 1.70139L13.3979 1.02794C13.2621 0.94892 13.0918 1.04691 13.0918 1.20409V2.54479C13.0918 2.9177 13.3012 3.24145 13.6088 3.40526C13.8677 3.5545 15.5381 4.50667 17.2533 5.23835C18.2092 5.64621 19.3572 6.02128 20.0634 6.23952C20.1585 7.6972 20.341 11.2757 20.0585 13.9827C19.8983 15.5184 19.1723 17.1289 18.0145 18.5174C17.1827 19.5148 16.1711 20.3487 15.083 20.9456V23.1131Z" fill="currentColor"/>
<path d="M12.1878 15.8604H10.6C9.89851 15.8604 9.33021 15.2793 9.35117 14.5732C9.37127 13.8937 9.94673 13.3616 10.6266 13.3616H13.6505C15.4116 13.3616 16.8728 11.9554 16.8899 10.1945C16.9071 8.41632 15.4656 6.96417 13.6913 6.96417L12.1705 6.97314C11.6486 6.97176 11.2245 6.54683 11.2245 6.02468V1.2187C11.2245 1.06213 11.0552 0.964053 10.9193 1.04195L9.76506 1.70385C9.74755 1.71385 7.99426 2.71614 6.26745 3.44929C4.90726 4.02665 3.06072 4.55631 3.04234 4.56157L2.38977 4.74781L2.33801 5.42446C2.32205 5.63348 1.95095 10.5864 2.33076 14.2266C2.53055 16.1415 3.41163 18.1152 4.81168 19.7843C6.18119 21.417 7.98201 22.6867 9.88238 23.3597L10.9105 23.7237C11.0432 23.7706 11.1824 23.6722 11.1824 23.5316V22.4407C11.1824 22.0077 10.8999 21.6406 10.5092 21.5137C8.94065 20.9529 7.44847 19.8946 6.30515 18.5315C5.15233 17.1573 4.42945 15.5566 4.26952 14.0243C3.98701 11.3168 4.15134 7.70767 4.23829 6.23775C4.93961 6.02054 6.07405 5.649 7.02906 5.24357C7.83191 4.90283 8.62777 4.51421 9.27518 4.18141V6.02468C9.27518 7.62253 10.5752 8.92243 12.173 8.92243L13.6939 8.91355C14.3945 8.91501 14.9616 9.49599 14.9401 10.2016C14.9194 10.8809 14.3442 11.4123 13.6648 11.4123H10.6C8.82566 11.4123 7.38421 12.8644 7.40146 14.6425C7.41854 16.4035 8.87975 17.8097 10.6408 17.8097H12.1878C12.7108 17.8097 13.1362 18.2352 13.1362 18.7569C13.1362 18.7569 13.132 21.8142 13.132 22.4501V23.5408C13.132 23.6815 13.2712 23.78 13.4038 23.7329L14.4321 23.3688C14.6515 23.2911 14.8684 23.2054 15.0827 23.1132V18.6464C15.0236 17.1002 13.7481 15.8604 12.1878 15.8604Z" fill="currentColor"/>
</svg>

<svg viewBox="0 0 24 24" fill="none" xmlns="http://www.w3.org/2000/svg"><path d="M15.083 23.113c3.667-1.579 6.528-5.23 6.914-8.928.38-3.644-.021-8.56-.038-8.767l-.056-.672-.649-.185c-.018-.005-1.883-.539-3.236-1.116-1.713-.73-3.445-1.734-3.462-1.744l-1.158-.673a.204.204 0 0 0-.306.176v1.34c0 .374.21.697.517.861.259.15 1.93 1.102 3.644 1.833.956.408 2.104.783 2.81 1.002.096 1.457.278 5.036-.005 7.743-.16 1.535-.886 3.146-2.043 4.534a10.322 10.322 0 0 1-2.932 2.429v2.167z" fill="currentColor"/><path d="M12.188 15.86H10.6a1.25 1.25 0 0 1-1.249-1.287c.02-.68.596-1.211 1.276-1.211h3.023c1.762 0 3.223-1.407 3.24-3.168a3.202 3.202 0 0 0-3.199-3.23l-1.52.01a.95.95 0 0 1-.946-.95V1.22a.204.204 0 0 0-.306-.177l-1.154.662c-.017.01-1.77 1.012-3.498 1.745-1.36.578-3.206 1.107-3.225 1.113l-.652.186-.052.676c-.016.21-.387 5.162-.007 8.803.2 1.915 1.08 3.888 2.48 5.557 1.37 1.633 3.171 2.903 5.071 3.576l1.029.364a.204.204 0 0 0 .271-.192V22.44c0-.433-.282-.8-.673-.927-1.568-.561-3.06-1.62-4.204-2.982-1.153-1.375-1.876-2.975-2.035-4.508-.283-2.707-.119-6.316-.032-7.786.702-.217 1.836-.589 2.791-.994.803-.341 1.599-.73 2.246-1.063v1.844c0 1.598 1.3 2.897 2.898 2.897l1.52-.008a1.25 1.25 0 0 1 1.247 1.288c-.02.679-.596 1.21-1.275 1.21H10.6a3.202 3.202 0 0 0-3.199 3.23c.018 1.762 1.479 3.168 3.24 3.168h1.547a.95.95 0 0 1 .948.947l-.004 3.693v1.09c0 .142.14.24.272.193l1.028-.364c.22-.078.436-.164.65-.256v-4.467a2.9 2.9 0 0 0-2.894-2.786z" fill="currentColor"/></svg>
